svg/Pictogram/pictograms-aem-0125-do_not_put_hand_in_this_area.svg

<?xml version="1.0" encoding="ISO-8859-1" standalone="yes"?>
<svg height="305.909" width="305.909">
  <metadata>
    <rdf:RDF xmlns:cc="http://web.resource.org/cc/" xmlns:dc="http://purl.org/dc/elements/1.1/" xmlns:rdf="http://www.w3.org/1999/02/22-rdf-syntax-ns#">
      <cc:Work rdf:about="">
        <dc:title></dc:title>
        <dc:description></dc:description>
        <dc:subject>
          <rdf:Bag>
            <rdf:li></rdf:li>
          </rdf:Bag>
        </dc:subject>
        <dc:publisher>
          <cc:Agent rdf:about="http://www.unece.org/trans/danger/publi/ghs/pictograms.html">
            <dc:title>Source: UNECE GHS of Classification and Labeling of Chemicals, Source: AEM Pictorial Database, Source: AEM Pictorial Database, Source: AEM Pictorial Database, Source: AEM Pictorial Database</dc:title>
          </cc:Agent>
        </dc:publisher>
        <dc:creator>
          <cc:Agent>
            <dc:title></dc:title>
          </cc:Agent>
        </dc:creator>
        <dc:rights>
          <cc:Agent>
            <dc:title></dc:title>
          </cc:Agent>
        </dc:rights>
        <dc:date></dc:date>
        <dc:format>image/svg+xml</dc:format>
        <dc:type rdf:resource="http://purl.org/dc/dcmitype/StillImage"/>
        <cc:license rdf:resource="http://en.wikipedia.org/wiki/Public_domain"/>
        <dc:language>en</dc:language>
      </cc:Work>
    </rdf:RDF>
  </metadata>
  <defs><marker id="ArrowEnd" markerHeight="3" markerUnits="strokeWidth" markerWidth="4" orient="auto" refX="0" refY="5" viewBox="0 0 10 10"><path d="M 0 0 L 10 5 L 0 10 z"/></marker><marker id="ArrowStart" markerHeight="3" markerUnits="strokeWidth" markerWidth="4" orient="auto" refX="10" refY="5" viewBox="0 0 10 10"><path d="M 10 0 L 0 5 L 10 10 z"/></marker> </defs>
  <g id="g2958" transform="matrix(1.3532768,0,0,1.3532781,-53.207834,-52.192858)">
    <path d="M 209.456 195.058C 209.077 212.734 200.647 228.433 187.69 238.632L 187.69 264.999L 118.612 264.999L 118.612 238.632C 105.35 228.195 96.8313 211.995 96.8313 193.808L 96.8079 103.421C 107.495 103.421 115.21 108.815 115.21 124.143L 115.21 146.21C 115.21 147.292 116.085 148.171 117.175 148.171C 118.261 148.171 119.136 147.292 119.136 146.21L 119.136 64.9334C 119.136 59.5114 123.53 55.1124 128.956 55.1124C 134.378 55.1124 138.772 59.5114 138.772 64.9334L 138.772 144.589C 138.772 145.671 139.647 146.554 140.737 146.554C 141.823 146.554 142.698 145.671 142.698 144.589L 142.698 51.0074C 142.698 45.5894 147.097 41.1864 152.518 41.1864C 157.948 41.1864 162.339 45.5894 162.339 51.0074L 162.339 144.589C 162.339 145.671 163.214 146.554 164.304 146.554C 165.39 146.554 166.268 145.671 166.268 144.589L 166.268 64.9334C 166.268 59.5114 170.663 55.1124 176.081 55.1124C 181.507 55.1124 185.905 59.5114 185.905 64.9334L 185.905 144.589C 185.905 145.671 186.788 146.554 187.866 146.554C 188.956 146.554 189.827 145.671 189.827 144.589L 189.827 87.6004C 189.827 82.1754 194.225 77.7804 199.651 77.7804C 205.073 77.7804 209.472 82.1754 209.472 87.6004L 209.456 195.058" style="stroke:none; fill-rule:evenodd; fill:#000000"/>
    <path d="M 249.62 67.6794L 238.554 56.6124L 153.14 142.026L 67.7259 56.6124L 56.6595 67.6794L 142.073 153.093L 56.6595 238.507L 67.7259 249.57L 153.14 164.159L 238.554 249.57L 249.62 238.507L 164.206 153.093L 249.62 67.6794" style="stroke:none; fill-rule:evenodd; fill:#d90000"/>
    <path d="M 29.6204 267.288L 2.62042 267.288" style="stroke:#000000; stroke-width:0.5; fill:none"/>
    <path d="M 38.6204 276.288L 38.6204 303.288" style="stroke:#000000; stroke-width:0.5; fill:none"/>
    <path d="M 29.6204 38.6244L 2.62042 38.6244" style="stroke:#000000; stroke-width:0.5; fill:none"/>
    <path d="M 38.6204 29.6244L 38.6204 2.62042" style="stroke:#000000; stroke-width:0.5; fill:none"/>
    <path d="M 276.288 38.6244L 303.288 38.6244" style="stroke:#000000; stroke-width:0.5; fill:none"/>
    <path d="M 267.288 29.6244L 267.288 2.62042" style="stroke:#000000; stroke-width:0.5; fill:none"/>
    <path d="M 276.288 267.288L 303.288 267.288" style="stroke:#000000; stroke-width:0.5; fill:none"/>
    <path d="M 267.288 276.288L 267.288 303.288" style="stroke:#000000; stroke-width:0.5; fill:none"/>
  </g>
</svg>

<svg viewBox="0 0 305.91 305.91"><g transform="matrix(1.35328 0 0 1.35328-53.21-52.19)" fill-rule="evenodd"><path d="m209.46 195.06c-.379 17.676-8.809 33.375-21.766 43.574v26.367h-69.08v-26.367c-13.262-10.437-21.781-26.637-21.781-44.824l-.023-90.39c10.687 0 18.402 5.394 18.402 20.722v22.07c0 1.082.875 1.961 1.965 1.961 1.086 0 1.961-.879 1.961-1.961v-81.28c0-5.422 4.394-9.821 9.82-9.821 5.422 0 9.816 4.399 9.816 9.821v79.66c0 1.082.875 1.965 1.965 1.965 1.086 0 1.961-.883 1.961-1.965v-93.58c0-5.418 4.399-9.821 9.82-9.821 5.43 0 9.821 4.403 9.821 9.821v93.58c0 1.082.875 1.965 1.965 1.965 1.086 0 1.964-.883 1.964-1.965v-79.66c0-5.422 4.395-9.821 9.813-9.821 5.426 0 9.824 4.399 9.824 9.821v79.66c0 1.082.883 1.965 1.961 1.965 1.09 0 1.961-.883 1.961-1.965v-56.989c0-5.425 4.398-9.82 9.824-9.82 5.422 0 9.821 4.395 9.821 9.82l-.016 107.46"/><path d="m249.62 67.68l-11.07-11.07-85.41 85.41-85.41-85.41-11.07 11.07 85.41 85.41-85.41 85.41 11.07 11.06 85.41-85.41 85.41 85.41 11.07-11.06-85.41-85.41 85.41-85.41" fill="#d90000"/></g></svg>
